lib/functional/design/stamp.svg

<svg xmlns="http://www.w3.org/2000/svg" fill="none" stroke="currentColor" aria-hidden="true" viewBox="0 0 32 32"><g id="Icon-Stamp"><g clip-path="url(#clip0_8_53)"><g id="size=md (32px)"><g id="Stamp"><path id="Vector" stroke-linecap="round" stroke-linejoin="round" stroke-width="2" d="M5 28H27"/><path id="Vector_2" stroke-linecap="round" stroke-linejoin="round" stroke-width="2" d="M14.0001 17L11.7751 6.625C11.6819 6.18752 11.6877 5.73474 11.7921 5.2998C11.8965 4.86486 12.0968 4.45877 12.3784 4.11125C12.66 3.76373 13.0158 3.48358 13.4197 3.29131C13.8235 3.09904 14.2653 2.99951 14.7126 3H17.2876C17.7349 2.99951 18.1766 3.09904 18.5805 3.29131C18.9843 3.48358 19.3401 3.76373 19.6217 4.11125C19.9033 4.45877 20.1036 4.86486 20.208 5.2998C20.3124 5.73474 20.3182 6.18752 20.2251 6.625L18.0001 17"/><path id="Vector_3" stroke-linecap="round" stroke-linejoin="round" stroke-width="2" d="M26 17H6C5.44772 17 5 17.4477 5 18V23C5 23.5523 5.44772 24 6 24H26C26.5523 24 27 23.5523 27 23V18C27 17.4477 26.5523 17 26 17Z"/></g></g></g></g><defs><clipPath id="clip0_8_53"><rect width="32" height="32" fill="white" rx="5"/></clipPath></defs></svg>

<svg xmlns="http://www.w3.org/2000/svg" fill="none" stroke="currentColor" aria-hidden="true" viewBox="0 0 32 32"><g stroke="#101828" stroke-linecap="round" stroke-linejoin="round" stroke-width="2" clip-path="url(#a)"><path d="M5 28h22M14 17 11.775 6.625A3 3 0 0 1 14.713 3h2.575a3 3 0 0 1 2.937 3.625L18 17m8 0H6a1 1 0 0 0-1 1v5a1 1 0 0 0 1 1h20a1 1 0 0 0 1-1v-5a1 1 0 0 0-1-1Z"/></g><defs><clipPath id="a"><rect width="32" height="32" fill="#fff" rx="5"/></clipPath></defs></svg>
